Carto/POI/SVG/religious-temple-buddhist-jpn_solid_24px.svg

<svg xmlns="http://www.w3.org/2000/svg" width="24" height="24" viewBox="0 0 24 24"><rect width="24" height="24" style="fill:none"/><path d="M13,13v4h6v2H11V13H7v6H5V11h6V7H5V5h8v6h4V5h2v8Z"/></svg>

<svg width="24" height="24" viewBox="0 0 24 24" fill="none" xmlns="http://www.w3.org/2000/svg">
<path d="M13 13V17H19V19H11V13H7V19H5V11H11V7H5V5H13V11H17V5H19V13H13Z" fill="#0F1621"/>
</svg>
